X:635
T:The Rothesay Rant
C:Beryl S Johnston
C:Play the whole thing twice through: 4 x 32 bars.
S:Colin Hume's website,  colinhume.com  - chords can also be printed below the stave.
Q:3/8=120
M:6/8
L:1/8
K:G
P:A
|:d | "G"{ef}g2f e2d | "C"e2d e2g | "G"d2B B2g | "D7"B2A A2d |\
"G"g2f g2a | "Em"b3 g2b | "Am"a2g g2e | "G"g3- g2 :|
P:B
|: d | "G"B2G G2d | "G"B2G G2d | "C"e2d "G"B2G | "D7"A2d d2 d |\
"C"{def}g2f e2d | "Am"e2d c2B | "D7"A2e e2F | "G"G3- G2 :|
P:C
K:C
|: G | "C"e3 e2e | "G/B"d3 d2d | "Am"c2d c2A | "C"GE2 E2G |\
"F"f3 f2f | "C"e3 g2a | "Am"g2e c2e | "G7"d3 g2f |
| "C"e3 g2e | "G"d3 g2f | "C"e2g "G/B"d2e | "Am"c2B "Am/G"A2G |\
"F"A2c "Dm"f2a | "C"c'<c'z "Dm"b2a | "C/G"g2e "G7"e2d | "C"c3- c2 :|

